X:1
T:J.S. Bach: Chaconne
I:vn
K:C
M:3/4
L:1/4
[D2F2A3/2]A/2|[DGBe][^C2G2A2e3/2]e/2|[DFAf][_B,2F2d3/2]c/2|[G,G_B][A,FA][^CG/4]F/4E/4F/4|[DG/4]E/4F/4D/4
[D2F2A3/2]A/2|[DGBe][^C2G2A2e2]|[DFAf][_B,2F2d2]|[G,Ed_b][A,3/4E3/4^c3/4a3/4] g/8f/8g3/4e/4|
[D3/4d3/4f3/4]E/4 F3/4G/8A/8 _B3/4A/4 | [D3/4G3/4_B3/4e3/4]F/4 [^C3/4G3/4A3/4e3/4]_B/4 A3/4G/4 | [D3/4F3/4A3/4f3/4]E/4 [_B,3/4F3/4d3/4][A/4f/4] [G3/4e3/4] [G,/4F/4d/4]

